public/libraries/nextend2/smartslider/media/plugins/widgetfullscreen/image/image/tonormal/full2.svg

<svg width="16" height="16" viewBox="0 0 16 16" xmlns="http://www.w3.org/2000/svg"><path d="M15 7V5h-3V2h-2v5h5zM1 7V5h3V2h2v5H1zm0 2v2h3v3h2V9H1zm14 0v2h-3v3h-2V9h5z" fill="#FFF" opacity="1" fill-rule="evenodd"/></svg>

<?xml version="1.0" encoding="UTF-8" standalone="no"?>
<svg width="16px" height="16px" viewBox="0 0 16 16" version="1.1" xmlns="http://www.w3.org/2000/svg" xmlns:xlink="http://www.w3.org/1999/xlink" xmlns:sketch="http://www.bohemiancoding.com/sketch/ns">
    <!-- Generator: Sketch 3.2.2 (9983) - http://www.bohemiancoding.com/sketch -->
    <title>Slice 1</title>
    <desc>Created with Sketch.</desc>
    <defs></defs>
    <g id="Page-1" stroke="none" stroke-width="1" fill="none" fill-rule="evenodd" sketch:type="MSPage">
        <path d="M15,7 L15,5 L12,5 L12,2 L10,2 L10,7 L15,7 L15,7 Z M1,7 L1,5 L4,5 L4,2 L6,2 L6,7 L1,7 L1,7 Z M1,9 L1,11 L4,11 L4,14 L6,14 L6,9 L1,9 L1,9 Z M15,9 L15,11 L12,11 L12,14 L10,14 L10,9 L15,9 L15,9 Z" id="path-1" fill="#FFFFFF" sketch:type="MSShapeGroup"></path>
    </g>
</svg>
